localPackages/DesignSystem/Sources/DesignSystem/Resources/Assets.xcassets/IconSet/ic-folder-open-filled.imageset/ic-folder-open-filled.svg

<svg width="24" height="24" viewBox="0 0 24 24" fill="none" xmlns="http://www.w3.org/2000/svg">
<g id="ic-folder-open-filled">
<path id="Icon" fill-rule="evenodd" clip-rule="evenodd" d="M1.5 13.5003V4.50073C1.5 3.67231 2.17157 3.00073 3 3.00073H7.71111C8.05947 3.00073 8.39697 3.12198 8.66568 3.34367L11.1669 5.40713C11.2206 5.45146 11.2881 5.47571 11.3578 5.47571L19.5 5.47582C20.3284 5.47583 21 6.1474 21 6.97582V8.25025H8.09394C7.26619 8.25025 6.50528 8.70475 6.11286 9.43357L1.5 18.0007V13.5003ZM8.85 9.75C8.01905 9.75 7.25574 10.208 6.86471 10.9412L2.67647 18.7941C2.14359 19.7933 2.86762 21 4 21H17.85C18.404 21 18.9128 20.6947 19.1735 20.2059L23.8676 11.4044C24.2673 10.655 23.7243 9.75 22.875 9.75H8.85Z" fill="#0F0F0F"/>
</g>
</svg>

<svg xmlns="http://www.w3.org/2000/svg" width="24" height="24" viewBox="0 0 24 24">
  <g class="ic-folder-open-filled">
    <path fill-rule="evenodd" d="M1.5 13.5v-9A1.5 1.5 0 0 1 3 3h4.711a1.5 1.5 0 0 1 .955.343l2.5 2.063a.3.3 0 0 0 .192.069H19.5a1.5 1.5 0 0 1 1.5 1.5V8.25H8.094a2.25 2.25 0 0 0-1.981 1.183L1.5 18v-4.5Zm7.35-3.75a2.25 2.25 0 0 0-1.985 1.19l-4.189 7.853A1.5 1.5 0 0 0 4 21h13.85a1.5 1.5 0 0 0 1.323-.794l4.695-8.801c.4-.75-.144-1.655-.993-1.655H8.85Z" class="Icon"/>
  </g>
</svg>
